icons/ir.svg

<?xml version="1.0" ?>
<svg xmlns="http://www.w3.org/2000/svg" xmlns:ev="http://www.w3.org/2001/xml-events" xmlns:xlink="http://www.w3.org/1999/xlink" baseProfile="full" height="522px" version="1.1" viewBox="-1029.213347451992 -229.85738058750724 12299.355525272062 10695.40847374563" width="600px">
	<defs/>
	<path d="M 214.0,9502.0 C 191.0,9465.0 169.0,9426.0 166.0,9414.0 C 162.0,9401.0 129.0,9377.0 80.0,9350.0 C 21.0,9318.0 0.0,9302.0 0.0,9287.0 C 0.0,9276.0 13.0,9224.0 29.0,9171.0 L 59.0,9075.0 L 60.0,8780.0 C 62.0,8503.0 61.0,8482.0 41.0,8433.0 L 21.0,8382.0 L 77.0,8339.0 C 137.0,8293.0 234.0,8178.0 250.0,8134.0 C 256.0,8120.0 263.0,8017.0 267.0,7907.0 L 273.0,7705.0 L 313.0,7632.0 C 343.0,7577.0 369.0,7545.0 415.0,7507.0 L 478.0,7455.0 L 490.0,7380.0 C 497.0,7339.0 514.0,7277.0 527.0,7243.0 C 547.0,7192.0 559.0,7177.0 593.0,7157.0 C 669.0,7113.0 750.0,7090.0 859.0,7082.0 L 963.0,7075.0 L 910.0,7006.0 L 857.0,6937.0 L 863.0,6820.0 L 868.0,6702.0 L 823.0,6659.0 C 751.0,6588.0 672.0,6469.0 654.0,6401.0 C 638.0,6344.0 634.0,6339.0 600.0,6330.0 C 579.0,6324.0 558.0,6314.0 552.0,6307.0 C 539.0,6291.0 520.0,6176.0 520.0,6116.0 C 520.0,6078.0 514.0,6060.0 490.0,6030.0 C 437.0,5963.0 426.0,5896.0 456.0,5822.0 C 468.0,5790.0 479.0,5781.0 509.0,5771.0 C 531.0,5765.0 555.0,5762.0 563.0,5766.0 C 575.0,5770.0 587.0,5756.0 608.0,5713.0 C 625.0,5681.0 656.0,5624.0 679.0,5585.0 C 714.0,5526.0 720.0,5507.0 720.0,5460.0 C 720.0,5410.0 723.0,5401.0 752.0,5373.0 C 770.0,5356.0 818.0,5321.0 858.0,5297.0 C 898.0,5272.0 943.0,5236.0 959.0,5216.0 C 975.0,5196.0 1023.0,5154.0 1064.0,5124.0 C 1127.0,5078.0 1157.0,5064.0 1234.0,5043.0 C 1322.0,5019.0 1330.0,5015.0 1357.0,4976.0 C 1373.0,4954.0 1399.0,4904.0 1415.0,4865.0 C 1431.0,4827.0 1455.0,4779.0 1470.0,4760.0 C 1519.0,4695.0 1556.0,4625.0 1573.0,4567.0 C 1588.0,4512.0 1588.0,4503.0 1569.0,4407.0 C 1559.0,4351.0 1547.0,4247.0 1544.0,4175.0 L 1539.0,4045.0 L 1602.0,4014.0 L 1665.0,3983.0 L 1680.0,3894.0 C 1696.0,3798.0 1729.0,3733.0 1798.0,3655.0 C 1841.0,3607.0 2038.0,3450.0 2055.0,3450.0 C 2062.0,3450.0 2075.0,3468.0 2084.0,3490.0 C 2096.0,3521.0 2107.0,3532.0 2128.0,3536.0 C 2153.0,3541.0 2158.0,3548.0 2168.0,3600.0 C 2177.0,3641.0 2177.0,3666.0 2170.0,3686.0 C 2148.0,3742.0 2221.0,3748.0 2287.0,3694.0 C 2324.0,3663.0 2333.0,3648.0 2352.0,3583.0 C 2369.0,3525.0 2380.0,3505.0 2400.0,3495.0 C 2414.0,3488.0 2436.0,3470.0 2449.0,3456.0 C 2463.0,3442.0 2478.0,3430.0 2484.0,3430.0 C 2490.0,3430.0 2513.0,3416.0 2534.0,3400.0 L 2574.0,3370.0 L 2604.0,3399.0 C 2656.0,3447.0 2713.0,3480.0 2746.0,3480.0 C 2785.0,3480.0 2836.0,3420.0 2854.0,3352.0 C 2868.0,3299.0 2974.0,3146.0 3018.0,3116.0 C 3059.0,3089.0 3085.0,3043.0 3115.0,2949.0 L 3141.0,2865.0 L 3239.0,2780.0 C 3336.0,2696.0 3337.0,2694.0 3348.0,2635.0 C 3355.0,2602.0 3385.0,2514.0 3416.0,2440.0 C 3447.0,2366.0 3485.0,2272.0 3502.0,2232.0 C 3529.0,2167.0 3541.0,2152.0 3623.0,2080.0 L 3715.0,2000.0 L 3807.0,2000.0 C 3900.0,2000.0 3901.0,2000.0 4008.0,1946.0 C 4067.0,1916.0 4145.0,1870.0 4182.0,1843.0 C 4240.0,1801.0 4254.0,1783.0 4290.0,1713.0 L 4332.0,1632.0 L 4393.0,1615.0 C 4568.0,1568.0 4683.0,1524.0 4719.0,1492.0 C 4742.0,1471.0 4751.0,1457.0 4743.0,1454.0 C 4735.0,1450.0 4748.0,1428.0 4781.0,1391.0 L 4831.0,1333.0 L 4923.0,1348.0 C 5049.0,1367.0 5161.0,1358.0 5210.0,1326.0 C 5266.0,1289.0 5386.0,1257.0 5440.0,1263.0 C 5511.0,1271.0 5599.0,1315.0 5638.0,1360.0 C 5669.0,1397.0 5675.0,1400.0 5723.0,1400.0 C 5819.0,1400.0 5888.0,1436.0 5923.0,1506.0 C 5937.0,1533.0 5955.0,1542.0 6087.0,1590.0 C 6168.0,1619.0 6259.0,1654.0 6289.0,1667.0 C 6376.0,1705.0 6419.0,1699.0 6541.0,1635.0 L 6646.0,1581.0 L 6707.0,1478.0 C 6749.0,1406.0 6770.0,1360.0 6775.0,1325.0 C 6786.0,1244.0 6835.0,1134.0 6923.0,990.0 L 7006.0,855.0 L 7140.0,850.0 C 7227.0,846.0 7286.0,839.0 7305.0,830.0 C 7328.0,819.0 7384.0,815.0 7540.0,814.0 C 7778.0,813.0 7857.0,800.0 7928.0,750.0 C 7969.0,721.0 7974.0,720.0 7983.0,735.0 C 8013.0,789.0 8056.0,803.0 8108.0,776.0 C 8168.0,746.0 8343.0,727.0 8525.0,732.0 C 8695.0,737.0 8699.0,737.0 8730.0,763.0 C 8747.0,778.0 8766.0,790.0 8771.0,790.0 C 8776.0,790.0 8797.0,774.0 8818.0,755.0 C 8851.0,726.0 8866.0,720.0 8926.0,714.0 C 8964.0,710.0 9025.0,697.0 9062.0,684.0 C 9099.0,672.0 9137.0,664.0 9147.0,666.0 C 9157.0,668.0 9208.0,675.0 9260.0,680.0 C 9312.0,685.0 9371.0,692.0 9390.0,696.0 L 9425.0,702.0 L 9427.0,808.0 C 9430.0,929.0 9453.0,1100.0 9476.0,1175.0 C 9485.0,1203.0 9515.0,1272.0 9543.0,1330.0 C 9605.0,1458.0 9697.0,1564.0 9758.0,1575.0 C 9796.0,1582.0 9865.0,1618.0 9950.0,1675.0 C 9984.0,1698.0 10017.0,1711.0 10055.0,1715.0 C 10107.0,1722.0 10114.0,1726.0 10166.0,1784.0 C 10247.0,1872.0 10256.0,1910.0 10223.0,2004.0 C 10199.0,2070.0 10166.0,2090.0 10080.0,2090.0 C 9971.0,2090.0 9973.0,2089.0 9966.0,2188.0 C 9957.0,2322.0 9878.0,2611.0 9843.0,2642.0 C 9804.0,2675.0 9740.0,2699.0 9635.0,2718.0 C 9543.0,2735.0 9505.0,2749.0 9405.0,2799.0 C 9245.0,2879.0 9180.0,2937.0 9108.0,3067.0 C 9078.0,3121.0 9044.0,3187.0 9034.0,3213.0 C 9013.0,3267.0 8967.0,3310.0 8855.0,3382.0 C 8816.0,3407.0 8773.0,3444.0 8757.0,3467.0 L 8729.0,3507.0 L 8748.0,3556.0 C 8833.0,3772.0 8864.0,3837.0 8898.0,3874.0 C 9000.0,3986.0 9027.0,4031.0 9048.0,4130.0 C 9079.0,4271.0 9084.0,4340.0 9071.0,4412.0 C 9053.0,4507.0 9016.0,4566.0 8950.0,4605.0 C 8896.0,4638.0 8894.0,4638.0 8828.0,4628.0 C 8768.0,4618.0 8757.0,4619.0 8705.0,4640.0 C 8627.0,4672.0 8537.0,4740.0 8520.0,4780.0 C 8506.0,4813.0 8505.0,4836.0 8510.0,5016.0 C 8512.0,5109.0 8510.0,5122.0 8482.0,5186.0 C 8411.0,5349.0 8370.0,5463.0 8370.0,5500.0 C 8370.0,5547.0 8391.0,5651.0 8420.0,5744.0 C 8443.0,5818.0 8441.0,5898.0 8415.0,5924.0 C 8408.0,5931.0 8378.0,5940.0 8349.0,5943.0 C 8320.0,5947.0 8293.0,5953.0 8290.0,5957.0 C 8286.0,5962.0 8280.0,6024.0 8276.0,6095.0 L 8270.0,6225.0 L 8360.0,6273.0 L 8450.0,6321.0 L 8450.0,6403.0 C 8450.0,6480.0 8453.0,6492.0 8502.0,6605.0 L 8555.0,6725.0 L 8552.0,6895.0 C 8551.0,6989.0 8555.0,7119.0 8561.0,7185.0 C 8570.0,7296.0 8570.0,7308.0 8551.0,7350.0 C 8529.0,7402.0 8515.0,7470.0 8498.0,7625.0 L 8485.0,7735.0 L 8440.0,7747.0 C 8415.0,7753.0 8349.0,7759.0 8293.0,7759.0 L 8190.0,7760.0 L 8093.0,7812.0 C 8039.0,7840.0 7973.0,7880.0 7945.0,7900.0 C 7876.0,7951.0 7822.0,7979.0 7701.0,8030.0 C 7644.0,8054.0 7597.0,8079.0 7595.0,8085.0 C 7577.0,8153.0 7549.0,8203.0 7503.0,8251.0 C 7450.0,8307.0 7449.0,8307.0 7367.0,8319.0 C 7265.0,8333.0 7211.0,8333.0 7156.0,8319.0 C 7117.0,8309.0 7103.0,8312.0 7009.0,8344.0 C 6952.0,8363.0 6824.0,8402.0 6726.0,8430.0 L 6546.0,8482.0 L 6446.0,8576.0 L 6345.0,8671.0 L 6210.0,8666.0 C 6032.0,8659.0 6023.0,8656.0 6011.0,8612.0 C 6005.0,8593.0 5988.0,8564.0 5974.0,8548.0 C 5949.0,8523.0 5940.0,8520.0 5881.0,8521.0 C 5845.0,8521.0 5799.0,8527.0 5780.0,8534.0 C 5753.0,8544.0 5731.0,8544.0 5670.0,8534.0 C 5537.0,8511.0 5527.0,8506.0 5448.0,8419.0 C 5356.0,8318.0 5156.0,8156.0 5082.0,8123.0 C 5051.0,8109.0 4983.0,8087.0 4931.0,8074.0 C 4879.0,8062.0 4832.0,8046.0 4826.0,8040.0 C 4810.0,8024.0 4819.0,7962.0 4845.0,7910.0 C 4859.0,7883.0 4875.0,7829.0 4881.0,7790.0 C 4894.0,7711.0 4890.0,7700.0 4839.0,7700.0 C 4825.0,7700.0 4789.0,7693.0 4760.0,7684.0 C 4719.0,7672.0 4686.0,7670.0 4623.0,7675.0 C 4577.0,7679.0 4540.0,7685.0 4540.0,7689.0 C 4540.0,7693.0 4571.0,7702.0 4610.0,7709.0 C 4681.0,7722.0 4691.0,7729.0 4666.0,7749.0 C 4656.0,7758.0 4636.0,7755.0 4584.0,7736.0 C 4431.0,7682.0 4281.0,7641.0 4216.0,7634.0 C 4162.0,7629.0 4116.0,7614.0 4014.0,7569.0 C 3886.0,7511.0 3880.0,7510.0 3794.0,7510.0 C 3643.0,7510.0 3539.0,7534.0 3430.0,7592.0 C 3320.0,7651.0 3140.0,7760.0 3092.0,7796.0 C 3071.0,7812.0 3047.0,7849.0 3024.0,7899.0 C 2991.0,7971.0 2985.0,7978.0 2948.0,7989.0 C 2922.0,7997.0 2879.0,7999.0 2821.0,7995.0 C 2738.0,7988.0 2731.0,7989.0 2674.0,8018.0 C 2642.0,8034.0 2592.0,8051.0 2564.0,8055.0 C 2520.0,8061.0 2506.0,8068.0 2462.0,8113.0 C 2415.0,8160.0 2407.0,8176.0 2369.0,8290.0 C 2333.0,8398.0 2326.0,8432.0 2320.0,8540.0 C 2316.0,8609.0 2309.0,8672.0 2306.0,8680.0 C 2301.0,8691.0 2283.0,8695.0 2231.0,8695.0 C 2169.0,8695.0 2160.0,8698.0 2142.0,8720.0 C 2131.0,8734.0 2095.0,8758.0 2062.0,8774.0 C 2029.0,8790.0 1997.0,8813.0 1990.0,8825.0 C 1983.0,8837.0 1956.0,8858.0 1929.0,8870.0 C 1902.0,8883.0 1880.0,8899.0 1880.0,8905.0 C 1880.0,8921.0 1915.0,8951.0 1982.0,8994.0 L 2040.0,9030.0 L 2009.0,9113.0 C 1984.0,9182.0 1980.0,9204.0 1985.0,9251.0 L 1991.0,9307.0 L 1920.0,9353.0 C 1857.0,9395.0 1845.0,9400.0 1793.0,9400.0 C 1705.0,9400.0 1590.0,9357.0 1500.0,9292.0 C 1438.0,9247.0 1412.0,9219.0 1355.0,9133.0 C 1245.0,8970.0 1255.0,8979.0 1162.0,8965.0 C 1038.0,8947.0 862.0,8962.0 730.0,9001.0 L 624.0,9032.0 L 545.0,9163.0 C 457.0,9306.0 274.0,9570.0 262.0,9570.0 C 258.0,9569.0 236.0,9539.0 214.0,9502.0" fill="pink"/>
</svg>

<?xml version="1.0" standalone="no"?>
<!DOCTYPE svg PUBLIC "-//W3C//DTD SVG 20010904//EN"
 "http://www.w3.org/TR/2001/REC-SVG-20010904/DTD/svg10.dtd">
<svg version="1.0" xmlns="http://www.w3.org/2000/svg"
 width="1024.000000pt" height="1024.000000pt" viewBox="0 0 1024.000000 1024.000000"
 preserveAspectRatio="xMidYMid meet">
<metadata>
Created by potrace 1.10, written by Peter Selinger 2001-2011
</metadata>
<g transform="translate(0.000000,1024.000000) scale(0.100000,-0.100000)"
fill="#000000" stroke="none">
<path d="M214 9502 c-23 -37 -45 -76 -48 -88 -4 -13 -37 -37 -86 -64 -59 -32
-80 -48 -80 -63 0 -11 13 -63 29 -116 l30 -96 1 -295 c2 -277 1 -298 -19 -347
l-20 -51 56 -43 c60 -46 157 -161 173 -205 6 -14 13 -117 17 -227 l6 -202 40
-73 c30 -55 56 -87 102 -125 l63 -52 12 -75 c7 -41 24 -103 37 -137 20 -51 32
-66 66 -86 76 -44 157 -67 266 -75 l104 -7 -53 -69 -53 -69 6 -117 5 -118 -45
-43 c-72 -71 -151 -190 -169 -258 -16 -57 -20 -62 -54 -71 -21 -6 -42 -16 -48
-23 -13 -16 -32 -131 -32 -191 0 -38 -6 -56 -30 -86 -53 -67 -64 -134 -34
-208 12 -32 23 -41 53 -51 22 -6 46 -9 54 -5 12 4 24 -10 45 -53 17 -32 48
-89 71 -128 35 -59 41 -78 41 -125 0 -50 3 -59 32 -87 18 -17 66 -52 106 -76
40 -25 85 -61 101 -81 16 -20 64 -62 105 -92 63 -46 93 -60 170 -81 88 -24 96
-28 123 -67 16 -22 42 -72 58 -111 16 -38 40 -86 55 -105 49 -65 86 -135 103
-193 15 -55 15 -64 -4 -160 -10 -56 -22 -160 -25 -232 l-5 -130 63 -31 63 -31
15 -89 c16 -96 49 -161 118 -239 43 -48 240 -205 257 -205 7 0 20 18 29 40 12
31 23 42 44 46 25 5 30 12 40 64 9 41 9 66 2 86 -22 56 51 62 117 8 37 -31 46
-46 65 -111 17 -58 28 -78 48 -88 14 -7 36 -25 49 -39 14 -14 29 -26 35 -26 6
0 29 -14 50 -30 l40 -30 30 29 c52 48 109 81 142 81 39 0 90 -60 108 -128 14
-53 120 -206 164 -236 41 -27 67 -73 97 -167 l26 -84 98 -85 c97 -84 98 -86
109 -145 7 -33 37 -121 68 -195 31 -74 69 -168 86 -208 27 -65 39 -80 121
-152 l92 -80 92 0 c93 0 94 0 201 -54 59 -30 137 -76 174 -103 58 -42 72 -60
108 -130 l42 -81 61 -17 c175 -47 290 -91 326 -123 23 -21 32 -35 24 -38 -8
-4 5 -26 38 -63 l50 -58 92 15 c126 19 238 10 287 -22 56 -37 176 -69 230 -63
71 8 159 52 198 97 31 37 37 40 85 40 96 0 165 36 200 106 14 27 32 36 164 84
81 29 172 64 202 77 87 38 130 32 252 -32 l105 -54 61 -103 c42 -72 63 -118
68 -153 11 -81 60 -191 148 -335 l83 -135 134 -5 c87 -4 146 -11 165 -20 23
-11 79 -15 235 -16 238 -1 317 -14 388 -64 41 -29 46 -30 55 -15 30 54 73 68
125 41 60 -30 235 -49 417 -44 170 5 174 5 205 31 17 15 36 27 41 27 5 0 26
-16 47 -35 33 -29 48 -35 108 -41 38 -4 99 -17 136 -30 37 -12 75 -20 85 -18
10 2 61 9 113 14 52 5 111 12 130 16 l35 6 2 106 c3 121 26 292 49 367 9 28
39 97 67 155 62 128 154 234 215 245 38 7 107 43 192 100 34 23 67 36 105 40
52 7 59 11 111 69 81 88 90 126 57 220 -24 66 -57 86 -143 86 -109 0 -107 -1
-114 98 -9 134 -88 423 -123 454 -39 33 -103 57 -208 76 -92 17 -130 31 -230
81 -160 80 -225 138 -297 268 -30 54 -64 120 -74 146 -21 54 -67 97 -179 169
-39 25 -82 62 -98 85 l-28 40 19 49 c85 216 116 281 150 318 102 112 129 157
150 256 31 141 36 210 23 282 -18 95 -55 154 -121 193 -54 33 -56 33 -122 23
-60 -10 -71 -9 -123 12 -78 32 -168 100 -185 140 -14 33 -15 56 -10 236 2 93
0 106 -28 170 -71 163 -112 277 -112 314 0 47 21 151 50 244 23 74 21 154 -5
180 -7 7 -37 16 -66 19 -29 4 -56 10 -59 14 -4 5 -10 67 -14 138 l-6 130 90
48 90 48 0 82 c0 77 3 89 52 202 l53 120 -3 170 c-1 94 3 224 9 290 9 111 9
123 -10 165 -22 52 -36 120 -53 275 l-13 110 -45 12 c-25 6 -91 12 -147 12
l-103 1 -97 52 c-54 28 -120 68 -148 88 -69 51 -123 79 -244 130 -57 24 -104
49 -106 55 -18 68 -46 118 -92 166 -53 56 -54 56 -136 68 -102 14 -156 14
-211 0 -39 -10 -53 -7 -147 25 -57 19 -185 58 -283 86 l-180 52 -100 94 -101
95 -135 -5 c-178 -7 -187 -10 -199 -54 -6 -19 -23 -48 -37 -64 -25 -25 -34
-28 -93 -27 -36 0 -82 6 -101 13 -27 10 -49 10 -110 0 -133 -23 -143 -28 -222
-115 -92 -101 -292 -263 -366 -296 -31 -14 -99 -36 -151 -49 -52 -12 -99 -28
-105 -34 -16 -16 -7 -78 19 -130 14 -27 30 -81 36 -120 13 -79 9 -90 -42 -90
-14 0 -50 -7 -79 -16 -41 -12 -74 -14 -137 -9 -46 4 -83 10 -83 14 0 4 31 13
70 20 71 13 81 20 56 40 -10 9 -30 6 -82 -13 -153 -54 -303 -95 -368 -102 -54
-5 -100 -20 -202 -65 -128 -58 -134 -59 -220 -59 -151 0 -255 24 -364 82 -110
59 -290 168 -338 204 -21 16 -45 53 -68 103 -33 72 -39 79 -76 90 -26 8 -69
10 -127 6 -83 -7 -90 -6 -147 23 -32 16 -82 33 -110 37 -44 6 -58 13 -102 58
-47 47 -55 63 -93 177 -36 108 -43 142 -49 250 -4 69 -11 132 -14 140 -5 11
-23 15 -75 15 -62 0 -71 3 -89 25 -11 14 -47 38 -80 54 -33 16 -65 39 -72 51
-7 12 -34 33 -61 45 -27 13 -49 29 -49 35 0 16 35 46 102 89 l58 36 -31 83
c-25 69 -29 91 -24 138 l6 56 -71 46 c-63 42 -75 47 -127 47 -88 0 -203 -43
-293 -108 -62 -45 -88 -73 -145 -159 -110 -163 -100 -154 -193 -168 -124 -18
-300 -3 -432 36 l-106 31 -79 131 c-88 143 -271 407 -283 407 -4 -1 -26 -31
-48 -68z"/>
</g>
</svg>
